symbols/web/sentiment_neutral/materialsymbolsrounded/sentiment_neutral_wght100fill1_20px.svg

<svg xmlns="http://www.w3.org/2000/svg" height="20" width="20"><path d="M12.729 8.812q.354 0 .604-.26t.25-.614q0-.355-.239-.615-.24-.261-.615-.261-.354 0-.625.261-.271.26-.271.615 0 .354.271.614t.625.26Zm-5.396 0q.355 0 .605-.26t.25-.614q0-.355-.24-.615-.24-.261-.615-.261-.354 0-.625.261-.27.26-.27.615 0 .354.27.614.271.26.625.26Zm.646 3.75h4.063q.125 0 .208-.083.083-.083.083-.229 0-.125-.083-.208-.083-.084-.208-.084H7.958q-.125 0-.208.084-.083.083-.083.208 0 .125.093.219.094.093.219.093ZM10 17.25q-1.5 0-2.823-.573t-2.302-1.552q-.979-.979-1.552-2.302Q2.75 11.5 2.75 10t.573-2.823q.573-1.323 1.552-2.302.979-.979 2.302-1.552Q8.5 2.75 10 2.75t2.823.573q1.323.573 2.302 1.552.979.979 1.552 2.302Q17.25 8.5 17.25 10t-.573 2.823q-.573 1.323-1.552 2.302-.979.979-2.302 1.552-1.323.573-2.823.573Z"/></svg>

<svg xmlns="http://www.w3.org/2000/svg" height="20" width="20"><path d="M12.729 8.812Q13.083 8.812 13.333 8.552Q13.583 8.292 13.583 7.938Q13.583 7.583 13.344 7.323Q13.104 7.062 12.729 7.062Q12.375 7.062 12.104 7.323Q11.833 7.583 11.833 7.938Q11.833 8.292 12.104 8.552Q12.375 8.812 12.729 8.812ZM7.333 8.812Q7.688 8.812 7.938 8.552Q8.188 8.292 8.188 7.938Q8.188 7.583 7.948 7.323Q7.708 7.062 7.333 7.062Q6.979 7.062 6.708 7.323Q6.438 7.583 6.438 7.938Q6.438 8.292 6.708 8.552Q6.979 8.812 7.333 8.812ZM7.979 12.562H12.042Q12.167 12.562 12.25 12.479Q12.333 12.396 12.333 12.25Q12.333 12.125 12.25 12.042Q12.167 11.958 12.042 11.958H7.958Q7.833 11.958 7.75 12.042Q7.667 12.125 7.667 12.25Q7.667 12.375 7.76 12.469Q7.854 12.562 7.979 12.562ZM10 17.25Q8.5 17.25 7.177 16.677Q5.854 16.104 4.875 15.125Q3.896 14.146 3.323 12.823Q2.75 11.5 2.75 10Q2.75 8.5 3.323 7.177Q3.896 5.854 4.875 4.875Q5.854 3.896 7.177 3.323Q8.5 2.75 10 2.75Q11.5 2.75 12.823 3.323Q14.146 3.896 15.125 4.875Q16.104 5.854 16.677 7.177Q17.25 8.5 17.25 10Q17.25 11.5 16.677 12.823Q16.104 14.146 15.125 15.125Q14.146 16.104 12.823 16.677Q11.5 17.25 10 17.25Z"/></svg>
